symbols/web/2k_plus/materialsymbolssharp/2k_plus_wght700grad200_48px.svg

<svg xmlns="http://www.w3.org/2000/svg" height="48" width="48"><path d="M34 28h2v-3.15h2.55V23.2H36V20h-2v3.2h-3.15v1.65H34Zm-10.45 2h2.5v-4.5l4.2 4.5h3.2l-5.5-6 5.5-6h-3.2l-4.2 4.5V18h-2.5Zm-11.2 0h8.3v-2.5H14.9v-2.7h5.75V18h-8.3v2.5h5.8v2.75h-5.8ZM4.9 43.1V4.85h38.25V43.1Zm4.55-4.55h29.1V9.45H9.45Zm0 0V9.45v29.1Z"/></svg>

<svg xmlns="http://www.w3.org/2000/svg" height="48" width="48"><path d="M34 28H36V24.85H38.55V23.2H36V20H34V23.2H30.85V24.85H34ZM23.55 30H26.05V25.5L30.25 30H33.45L27.95 24L33.45 18H30.25L26.05 22.5V18H23.55ZM12.35 30H20.65V27.5H14.9V24.8H20.65V18H12.35V20.5H18.15V23.25H12.35ZM4.9 43.1V4.85H43.15V43.1ZM9.45 38.55H38.55V9.45H9.45ZM9.45 38.55V9.45V38.55Z"/></svg>
